svgs/sharp-solid/distribute-spacing-horizontal.svg

<svg xmlns="http://www.w3.org/2000/svg" viewBox="0 0 512 512"><!--! Font Awesome Pro 6.6.0 by @fontawesome - https://fontawesome.com License - https://fontawesome.com/license (Commercial License) Copyright 2024 Fonticons, Inc. --><path d="M32 0L80 0l0 512-48 0L32 0zM160 96l192 0 0 320-192 0 0-320zM480 0l0 512-48 0L432 0l48 0z"/></svg>

<svg xmlns="http://www.w3.org/2000/svg" viewBox="0 0 512 512"><!--! Font Awesome Pro 6.4.2 by @fontawesome - https://fontawesome.com License - https://fontawesome.com/license (Commercial License) Copyright 2023 Fonticons, Inc. --><path d="M32 0H80V512H32V0zM160 96H352V416H160V96zM480 0V512H432V0h48z"/></svg>
